source/img/services/icon-services/icon-graph.svg

<svg width="200" height="130" viewBox="0 0 200 130" fill="none" xmlns="http://www.w3.org/2000/svg">
<g clip-path="url(#clip0)">
<g filter="url(#filter0_d)">
<rect x="88.1973" y="53.2268" width="26.5753" height="76.7732" fill="url(#paint0_linear)"/>
</g>
<rect x="94.1035" y="53.2268" width="20.6697" height="76.7732" fill="black" fill-opacity="0.25"/>
<rect x="63.5908" y="86.6921" width="26.5753" height="43.3079" fill="#71A0DD"/>
<rect x="68.5127" y="86.6921" width="21.654" height="43.3079" fill="black" fill-opacity="0.25"/>
<g filter="url(#filter1_d)">
<rect x="38" y="112.283" width="26.5753" height="17.7169" fill="#F985A0"/>
</g>
<rect x="42.9209" y="112.283" width="21.654" height="17.7169" fill="black" fill-opacity="0.15"/>
<rect x="64.5752" y="115.236" width="3.93709" height="14.7641" fill="black" fill-opacity="0.5"/>
<rect x="90.167" y="90.6292" width="3.93709" height="39.3709" fill="black" fill-opacity="0.4"/>
<path d="M124.703 10.6778C137.905 23.0498 138.579 43.7821 126.207 56.9848C113.835 70.1875 93.1024 70.8609 79.8997 58.4889C66.697 46.1169 66.0236 25.3845 78.3956 12.1818C90.7677 -1.02086 111.5 -1.69426 124.703 10.6778Z" fill="#E9F7FF"/>
<path d="M151.64 82.1148C152.468 82.846 153.732 82.7676 154.463 81.9397C155.194 81.1118 155.116 79.8479 154.288 79.1167L151.64 82.1148ZM123.335 12.1371C135.732 23.7539 136.364 43.2206 124.747 55.6173L127.666 58.3524C140.793 44.3437 140.079 22.3457 126.07 9.21837L123.335 12.1371ZM124.747 55.6173C113.131 68.014 93.664 68.6463 81.2673 57.0295L78.5322 59.9483C92.5408 73.0756 114.539 72.3611 127.666 58.3524L124.747 55.6173ZM81.2673 57.0295C68.8706 45.4128 68.2383 25.9461 79.855 13.5494L76.9363 10.8143C63.809 24.8229 64.5235 46.821 78.5322 59.9483L81.2673 57.0295ZM79.855 13.5494C91.4718 1.15269 110.938 0.520401 123.335 12.1371L126.07 9.21837C112.062 -3.90892 90.0636 -3.19441 76.9363 10.8143L79.855 13.5494ZM124.883 58.4839L151.64 82.1148L154.288 79.1167L127.531 55.4858L124.883 58.4839Z" fill="#0A3D76"/>
<path d="M126.065 32.3215C126.024 31.0538 125.878 29.8141 125.636 28.6107M103.015 10.7212C112.17 10.4238 120.216 15.6786 123.918 23.4517" stroke="#0A3D76" stroke-width="2" stroke-linecap="round"/>
<path d="M50.102 91.6537C48.9691 91.6537 48.0507 90.7353 48.0507 89.6023C48.0507 88.4694 48.9691 87.551 50.102 87.551C51.2349 87.551 52.1533 88.4694 52.1533 89.6023C52.1533 90.7353 51.2349 91.6537 50.102 91.6537Z" fill="black"/>
<path d="M45.0757 94.6382C45.0822 93.3531 46.1493 92.2839 47.4545 92.2839H52.5801C52.5801 92.2839 54.5111 92.4425 55.4106 92.5119L57.2968 89.4176C57.5813 88.9508 58.1903 88.8032 58.6571 89.0876C59.1238 89.3722 59.2716 89.9812 58.9871 90.4479L56.7857 94.0592C56.592 94.377 56.2368 94.5588 55.8667 94.5311L52.7483 94.2979V111.286C52.7483 111.942 52.2163 112.474 51.5604 112.474C50.9045 112.474 50.3727 111.942 50.3727 111.286V101.793H49.8598V111.286C49.8598 111.942 49.328 112.474 48.6721 112.474C48.0162 112.474 47.4815 111.942 47.4815 111.286C47.4816 111.255 47.4802 95.3337 47.4815 94.2872C47.2735 94.2872 47.056 94.4592 47.0551 94.6431V101.915C47.0551 102.461 46.612 102.904 46.0654 102.904C45.5187 102.904 45.0756 102.461 45.0756 101.915L45.0757 94.6382Z" fill="black"/>
<path d="M75.7475 66.0074C74.6146 66.0074 73.6962 65.089 73.6962 63.9561C73.6962 62.8232 74.6146 61.9048 75.7475 61.9048C76.8804 61.9048 77.7988 62.8232 77.7988 63.9561C77.7988 65.089 76.8804 66.0074 75.7475 66.0074Z" fill="black"/>
<path d="M70.7212 68.9919C70.7277 67.7069 71.7948 66.6377 73.1 66.6377H78.2256C78.2256 66.6377 80.1566 66.7962 81.0561 66.8657L82.9423 63.7713C83.2268 63.3046 83.8358 63.1569 84.3026 63.4414C84.7694 63.7259 84.9171 64.3349 84.6326 64.8017L82.4312 68.413C82.2375 68.7307 81.8823 68.9126 81.5123 68.8848L78.3938 68.6517V85.6401C78.3938 86.2961 77.8618 86.8279 77.2059 86.8279C76.55 86.8279 76.0182 86.2961 76.0182 85.6401V76.1466H75.5053V85.6402C75.5053 86.2962 74.9735 86.8279 74.3176 86.8279C73.6617 86.8279 73.1271 86.2962 73.1271 85.6402C73.1271 85.609 73.1257 69.6874 73.1271 68.641C72.919 68.641 72.7015 68.813 72.7007 68.9969V76.2684C72.7007 76.815 72.2575 77.2581 71.7109 77.2581C71.1642 77.2581 70.7211 76.815 70.7211 76.2684L70.7212 68.9919Z" fill="black"/>
<mask id="mask0" mask-type="alpha" maskUnits="userSpaceOnUse" x="71" y="4" width="62" height="62">
<path d="M133 34.5C133 51.3447 119.345 65.5 102.5 65.5C85.6553 65.5 71 51.3447 71 34.5C71 17.6553 85.6553 4 102.5 4C119.345 4 133 17.6553 133 34.5Z" fill="#C4C4C4"/>
</mask>
<g mask="url(#mask0)">
<path d="M118.194 52.3058L114.104 51.1238L110.014 52.3058C109.979 52.3767 109.967 52.4477 109.967 52.5304V54.9733H118.241V52.5304C118.241 52.4477 118.229 52.3767 118.194 52.3058Z" fill="#646D73"/>
<path d="M118.241 54.9733V52.5304C118.241 52.4477 118.229 52.3767 118.193 52.3058L114.104 51.1238V54.9733H118.241Z" fill="#474F54"/>
<path d="M123.599 36.5729H120.579C120.584 36.3733 120.605 36.1852 120.605 35.9819C120.605 35.6509 120.345 35.3909 120.014 35.3909H108.193C107.862 35.3909 107.602 35.6509 107.602 35.9819C107.602 36.1852 107.622 36.3733 107.627 36.5729H104.608C104.281 36.5729 104.017 36.8373 104.017 37.1639V38.6611C104.017 41.9611 106.66 44.6419 109.918 44.8144C110.597 45.7489 111.402 46.4423 112.318 46.833C112.177 49.7054 110.534 51.703 110.144 52.1168C110.084 52.164 110.037 52.2349 110.013 52.3059H118.193C118.17 52.2349 118.122 52.164 118.063 52.1168C117.661 51.703 116.03 49.7172 115.888 46.833C116.805 46.4423 117.615 45.7486 118.294 44.8139C121.549 44.6385 124.19 41.9593 124.19 38.6611V37.1639C124.19 36.8373 123.926 36.5729 123.599 36.5729ZM105.199 38.6611V37.7549H107.678C107.832 39.7084 108.255 41.7773 109.145 43.5354C106.914 43.0329 105.199 41.0427 105.199 38.6611ZM123.008 38.6611C123.008 41.0415 121.294 43.0307 119.064 43.5344C119.948 41.7763 120.374 39.7274 120.529 37.7549H123.008V38.6611Z" fill="#FABE2C"/>
<path d="M115.047 42.9084C115.246 43.012 115.486 42.9927 115.666 42.8623C115.848 42.7307 115.939 42.5079 115.902 42.2874L115.729 41.2375L116.485 40.4913C116.645 40.3343 116.702 40.1005 116.633 39.8875C116.563 39.6751 116.38 39.5193 116.158 39.4858L115.108 39.3277L114.632 38.3771C114.532 38.1768 114.318 38.0767 114.104 38.0767V42.4184L115.047 42.9084Z" fill="#FF9100"/>
<path d="M118.832 55.5644H109.375C109.049 55.5644 108.784 55.3 108.784 54.9733C108.784 54.6467 109.049 54.3823 109.375 54.3823H118.832C119.158 54.3823 119.423 54.6467 119.423 54.9733C119.423 55.3 119.158 55.5644 118.832 55.5644Z" fill="#474F54"/>
<path d="M118.832 54.3823H114.104V55.5644H118.832C119.158 55.5644 119.423 55.3 119.423 54.9733C119.423 54.6467 119.158 54.3823 118.832 54.3823Z" fill="#32393F"/>
<path d="M115.048 42.9084L114.105 42.4184L113.162 42.9084C112.964 43.01 112.723 42.9933 112.542 42.8622C112.361 42.7306 112.269 42.5079 112.306 42.2874L112.48 41.2375L111.723 40.4912C111.559 40.3308 111.509 40.0929 111.576 39.8875C111.645 39.6751 111.829 39.5193 112.05 39.4858L113.101 39.3277L113.576 38.3771C113.777 37.9765 114.433 37.9765 114.634 38.3771L115.109 39.3277L116.16 39.4858C116.381 39.5193 116.565 39.6752 116.634 39.8875C116.703 40.1005 116.647 40.3343 116.486 40.4912L115.73 41.2375L115.903 42.2874C115.94 42.5079 115.849 42.7306 115.668 42.8622C115.488 42.9927 115.247 43.012 115.048 42.9084Z" fill="#EE8F00"/>
<path d="M96.9374 26.5428C99.0203 26.5428 100.709 24.8543 100.709 22.7714C100.709 20.6885 99.0203 19 96.9374 19C94.8545 19 93.166 20.6885 93.166 22.7714C93.166 24.8543 94.8545 26.5428 96.9374 26.5428Z" fill="#010002"/>
<path d="M109.068 20.1202C108.443 19.4967 107.432 19.4967 106.811 20.1202L99.1578 27.7723C98.5498 27.375 97.8251 27.1422 97.0446 27.1422C96.081 27.1422 95.2019 27.4958 94.5241 28.077L86.5673 20.1202C85.9446 19.4967 84.9333 19.4967 84.3098 20.1202C83.6871 20.7436 83.6871 21.7549 84.3098 22.3776L92.6961 30.7639C92.8357 30.9035 92.9968 31.0068 93.1672 31.0847V40.1427C93.1672 40.34 93.1867 40.5306 93.2149 40.7192C93.1867 40.8393 93.1686 40.9594 93.1686 41.0883V55.2269C93.1686 56.1094 93.8833 56.8247 94.765 56.8247C95.6468 56.8247 96.3615 56.1107 96.3615 55.2269V43.9557C96.5836 43.9967 96.8111 44.0201 97.0453 44.0201C97.2802 44.0201 97.507 43.9967 97.7305 43.9557V55.2276C97.7305 56.1101 98.4445 56.8254 99.3269 56.8254C100.208 56.8254 100.923 56.1114 100.923 55.2276V41.0883C100.923 40.9594 100.904 40.8359 100.876 40.7151C100.903 40.5286 100.922 40.338 100.922 40.1421V31.0189C100.922 30.8626 100.91 30.7082 100.892 30.5552L109.068 22.3776C109.692 21.7549 109.692 20.7436 109.068 20.1202Z" fill="#010002"/>
<rect x="82" y="55.4771" width="37.889" height="109.457" fill="url(#paint1_linear)"/>
<rect x="90.4199" y="55.4771" width="29.4692" height="109.457" fill="black" fill-opacity="0.25"/>
</g>
<rect x="28" y="124" width="96" height="6" fill="url(#paint2_linear)"/>
</g>
<defs>
<filter id="filter0_d" x="86.1973" y="51.2268" width="34.5753" height="84.7732" filterUnits="userSpaceOnUse" color-interpolation-filters="sRGB">
<feFlood flood-opacity="0" result="BackgroundImageFix"/>
<feColorMatrix in="SourceAlpha" type="matrix" values="0 0 0 0 0 0 0 0 0 0 0 0 0 0 0 0 0 0 127 0"/>
<feOffset dx="2" dy="2"/>
<feGaussianBlur stdDeviation="2"/>
<feColorMatrix type="matrix" values="0 0 0 0 0 0 0 0 0 0 0 0 0 0 0 0 0 0 0.15 0"/>
<feBlend mode="normal" in2="BackgroundImageFix" result="effect1_dropShadow"/>
<feBlend mode="normal" in="SourceGraphic" in2="effect1_dropShadow" result="shape"/>
</filter>
<filter id="filter1_d" x="36" y="110.283" width="34.5753" height="25.7169" filterUnits="userSpaceOnUse" color-interpolation-filters="sRGB">
<feFlood flood-opacity="0" result="BackgroundImageFix"/>
<feColorMatrix in="SourceAlpha" type="matrix" values="0 0 0 0 0 0 0 0 0 0 0 0 0 0 0 0 0 0 127 0"/>
<feOffset dx="2" dy="2"/>
<feGaussianBlur stdDeviation="2"/>
<feColorMatrix type="matrix" values="0 0 0 0 0 0 0 0 0 0 0 0 0 0 0 0 0 0 0.25 0"/>
<feBlend mode="normal" in2="BackgroundImageFix" result="effect1_dropShadow"/>
<feBlend mode="normal" in="SourceGraphic" in2="effect1_dropShadow" result="shape"/>
</filter>
<linearGradient id="paint0_linear" x1="113.953" y1="91.6134" x2="88.9735" y2="91.4277" gradientUnits="userSpaceOnUse">
<stop stop-color="#A62E41"/>
<stop offset="1" stop-color="#E13152"/>
</linearGradient>
<linearGradient id="paint1_linear" x1="118.721" y1="110.206" x2="83.1067" y2="109.941" gradientUnits="userSpaceOnUse">
<stop stop-color="#A62E41"/>
<stop offset="1" stop-color="#E13152"/>
</linearGradient>
<linearGradient id="paint2_linear" x1="76" y1="124" x2="76" y2="130" gradientUnits="userSpaceOnUse">
<stop stop-color="#F5F9FF" stop-opacity="0"/>
<stop offset="1" stop-color="#F5F9FF"/>
</linearGradient>
<clipPath id="clip0">
<rect width="200" height="130" fill="white"/>
</clipPath>
</defs>
</svg>

<svg width="200" height="130" fill="none" xmlns="http://www.w3.org/2000/svg"><g clip-path="url(#clip0)"><g filter="url(#filter0_d)"><path fill="url(#paint0_linear)" d="M88.197 53.227h26.575V130H88.197z"/></g><path fill="#000" fill-opacity=".25" d="M94.103 53.227h20.67V130h-20.67z"/><path fill="#71A0DD" d="M63.591 86.692h26.575V130H63.591z"/><path fill="#000" fill-opacity=".25" d="M68.513 86.692h21.654V130H68.513z"/><g filter="url(#filter1_d)"><path fill="#F985A0" d="M38 112.283h26.575V130H38z"/></g><path fill="#000" fill-opacity=".15" d="M42.921 112.283h21.654V130H42.921z"/><path fill="#000" fill-opacity=".5" d="M64.575 115.236h3.937V130h-3.937z"/><path fill="#000" fill-opacity=".4" d="M90.167 90.629h3.937V130h-3.937z"/><path d="M124.703 10.678c13.202 12.372 13.876 33.104 1.504 46.307C113.835 70.188 93.102 70.86 79.9 58.489c-13.203-12.372-13.876-33.104-1.504-46.307C90.768-1.021 111.5-1.694 124.703 10.678z" fill="#E9F7FF"/><path d="M151.64 82.115a2 2 0 002.648-2.998l-2.648 2.998zm-28.305-69.978c12.397 11.617 13.029 31.084 1.412 43.48l2.919 2.735c13.127-14.008 12.413-36.006-1.596-49.134l-2.735 2.92zm1.412 43.48c-11.616 12.397-31.083 13.03-43.48 1.413l-2.735 2.918c14.009 13.128 36.007 12.413 49.134-1.596l-2.919-2.735zm-43.48 1.413c-12.396-11.617-13.029-31.084-1.412-43.48l-2.919-2.736C63.81 24.823 64.523 46.821 78.532 59.948l2.735-2.919zm-1.412-43.48c11.617-12.397 31.083-13.03 43.48-1.413l2.735-2.919C112.062-3.909 90.064-3.194 76.936 10.814l2.919 2.735zm45.028 44.934l26.757 23.63 2.648-2.997-26.757-23.631-2.648 2.998z" fill="#0A3D76"/><path d="M126.065 32.322a22.502 22.502 0 00-.429-3.711m-22.621-17.89c9.155-.297 17.201 4.958 20.903 12.73" stroke="#0A3D76" stroke-width="2" stroke-linecap="round"/><path d="M50.102 91.654a2.051 2.051 0 110-4.103 2.051 2.051 0 010 4.103z" fill="#000"/><path d="M45.076 94.638a2.386 2.386 0 012.379-2.354h5.125s1.931.158 2.83.228l1.887-3.094a.99.99 0 011.69 1.03l-2.201 3.611a.99.99 0 01-.92.472l-3.118-.233v16.988a1.188 1.188 0 01-2.375 0v-9.493h-.513v9.493a1.188 1.188 0 11-2.379 0V94.287c-.208 0-.425.172-.426.356v7.272a.99.99 0 01-1.98 0v-7.277zm30.672-28.631a2.051 2.051 0 110-4.102 2.051 2.051 0 010 4.102z" fill="#000"/><path d="M70.721 68.992a2.386 2.386 0 012.379-2.354h5.126s1.93.158 2.83.228l1.886-3.095a.99.99 0 011.69 1.03l-2.2 3.612a.99.99 0 01-.92.472l-3.118-.233V85.64a1.188 1.188 0 01-2.376 0v-9.493h-.513v9.493c0 .656-.531 1.188-1.187 1.188a1.19 1.19 0 01-1.19-1.188c0-.031-.002-15.953 0-16.999-.209 0-.427.172-.427.356v7.271a.99.99 0 01-1.98 0v-7.276z" fill="#000"/><mask id="a" maskUnits="userSpaceOnUse" x="71" y="4" width="62" height="62"><path d="M133 34.5c0 16.845-13.655 31-30.5 31S71 51.345 71 34.5 85.655 4 102.5 4 133 17.655 133 34.5z" fill="#C4C4C4"/></mask><g mask="url(#a)"><path d="M118.194 52.306l-4.09-1.182-4.09 1.182a.485.485 0 00-.047.224v2.443h8.274V52.53a.485.485 0 00-.047-.224z" fill="#646D73"/><path d="M118.241 54.973V52.53a.474.474 0 00-.048-.224l-4.089-1.182v3.85h4.137z" fill="#474F54"/><path d="M123.599 36.573h-3.02c.005-.2.026-.388.026-.591a.585.585 0 00-.591-.591h-11.821a.585.585 0 00-.591.59c0 .204.02.392.025.592h-3.019a.59.59 0 00-.591.59v1.498c0 3.3 2.643 5.98 5.901 6.153.679.935 1.484 1.628 2.4 2.019-.141 2.872-1.784 4.87-2.174 5.284a.417.417 0 00-.131.189h8.18a.415.415 0 00-.13-.19c-.402-.413-2.033-2.399-2.175-5.283.917-.39 1.727-1.084 2.406-2.02 3.255-.175 5.896-2.854 5.896-6.152v-1.497a.59.59 0 00-.591-.591zm-18.4 2.088v-.906h2.479c.154 1.953.577 4.022 1.467 5.78-2.231-.502-3.946-2.492-3.946-4.874zm17.809 0c0 2.38-1.714 4.37-3.944 4.873.884-1.758 1.31-3.807 1.465-5.78h2.479v.907z" fill="#FABE2C"/><path d="M115.047 42.908a.591.591 0 00.855-.62l-.173-1.05.756-.747a.59.59 0 00-.327-1.005l-1.05-.158-.476-.95c-.1-.201-.314-.301-.528-.301v4.341l.943.49z" fill="#FF9100"/><path d="M118.832 55.564h-9.457a.591.591 0 010-1.182h9.457a.591.591 0 010 1.182z" fill="#474F54"/><path d="M118.832 54.382h-4.728v1.182h4.728a.591.591 0 000-1.182z" fill="#32393F"/><path d="M115.048 42.908l-.943-.49-.943.49a.59.59 0 01-.856-.621l.174-1.05-.757-.746a.591.591 0 01.327-1.005l1.051-.158.475-.95c.201-.401.857-.401 1.058 0l.475.95 1.051.158a.592.592 0 01.326 1.005l-.756.746.173 1.05a.59.59 0 01-.855.621z" fill="#EE8F00"/><path d="M96.937 26.543a3.772 3.772 0 100-7.543 3.772 3.772 0 000 7.543z" fill="#010002"/><path d="M109.068 20.12a1.595 1.595 0 00-2.257 0l-7.653 7.652a3.858 3.858 0 00-4.634.305l-7.957-7.957a1.596 1.596 0 10-2.257 2.258l8.386 8.386c.14.14.3.243.471.32v9.059c0 .197.02.388.048.576-.028.12-.046.24-.046.37v14.138a1.597 1.597 0 103.193 0V43.956c.222.04.45.064.683.064.235 0 .462-.023.686-.064v11.272a1.597 1.597 0 103.192 0v-14.14c0-.129-.019-.252-.047-.373a3.98 3.98 0 00.046-.573V31.02c0-.156-.012-.31-.03-.464l8.176-8.177a1.595 1.595 0 000-2.258z" fill="#010002"/><path fill="url(#paint1_linear)" d="M82 55.477h37.889v109.457H82z"/><path fill="#000" fill-opacity=".25" d="M90.42 55.477h29.469v109.457H90.42z"/></g><path fill="url(#paint2_linear)" d="M28 124h96v6H28z"/></g><defs><linearGradient id="paint0_linear" x1="113.953" y1="91.613" x2="88.974" y2="91.428" gradientUnits="userSpaceOnUse"><stop stop-color="#A62E41"/><stop offset="1" stop-color="#E13152"/></linearGradient><linearGradient id="paint1_linear" x1="118.721" y1="110.206" x2="83.107" y2="109.941" gradientUnits="userSpaceOnUse"><stop stop-color="#A62E41"/><stop offset="1" stop-color="#E13152"/></linearGradient><linearGradient id="paint2_linear" x1="76" y1="124" x2="76" y2="130" gradientUnits="userSpaceOnUse"><stop stop-color="#F5F9FF" stop-opacity="0"/><stop offset="1" stop-color="#F5F9FF"/></linearGradient><filter id="filter0_d" x="86.197" y="51.227" width="34.575" height="84.773" filterUnits="userSpaceOnUse" color-interpolation-filters="sRGB"><feFlood flood-opacity="0" result="BackgroundImageFix"/><feColorMatrix in="SourceAlpha" values="0 0 0 0 0 0 0 0 0 0 0 0 0 0 0 0 0 0 127 0"/><feOffset dx="2" dy="2"/><feGaussianBlur stdDeviation="2"/><feColorMatrix values="0 0 0 0 0 0 0 0 0 0 0 0 0 0 0 0 0 0 0.15 0"/><feBlend in2="BackgroundImageFix" result="effect1_dropShadow"/><feBlend in="SourceGraphic" in2="effect1_dropShadow" result="shape"/></filter><filter id="filter1_d" x="36" y="110.283" width="34.575" height="25.717" filterUnits="userSpaceOnUse" color-interpolation-filters="sRGB"><feFlood flood-opacity="0" result="BackgroundImageFix"/><feColorMatrix in="SourceAlpha" values="0 0 0 0 0 0 0 0 0 0 0 0 0 0 0 0 0 0 127 0"/><feOffset dx="2" dy="2"/><feGaussianBlur stdDeviation="2"/><feColorMatrix values="0 0 0 0 0 0 0 0 0 0 0 0 0 0 0 0 0 0 0.25 0"/><feBlend in2="BackgroundImageFix" result="effect1_dropShadow"/><feBlend in="SourceGraphic" in2="effect1_dropShadow" result="shape"/></filter><clipPath id="clip0"><path fill="#fff" d="M0 0h200v130H0z"/></clipPath></defs></svg>
